!!!COM: Stadler, Maximilian
!!!CDT: 1748///-1833///
!!!COA: Haydn, Joseph
!!!OTL@@IT: Gioco filarmonico
!!!OTL@EN: Philharmonic Joke
!!!OTA@@IT: o sia maniera facile per comporre un infinito numero de minuetti e trio anche senza sapere il contrapunto
!!!OTA@EN: or the Art of Composing an Infinite Number of Minutes Without the Least Knowledge of Counterpoint
!!!PDT: 1781///
!!!PPR: Artaria
!!!SML: Gesellschaft der Musikfreundes, Vienna
!!!PPR2: Luigi Marescalchi
!!!PPP2: Napoli
!!!PDT2: 1790///
**kern	**kern	**kern
*Icello	*Ivioln	*Ivioln
*>[A,A,B,B,A]	*>[A,A,B,B,A]	*>[A,A,B,B,A]
*>norep[A,B]	*>norep[A,B]	*>norep[A,B]
*>A	*>A	*>A
*k[]	*k[]	*k[]
*M3/4	*M3/4	*M3/4
*MM120	*MM120	*MM120
!!section:  I
!!measure:  A
!!diceroll: 10
=98	=98	=98
4C	4e	4cc
4E	4g	16b
.	.	8.cc
4E	4g	16b
.	.	8.cc
!!section:  I
!!measure:  B
!!diceroll: 6
=74	=74	=74
2F	2e	8cc
.	.	8b
.	.	8gg
.	.	8b
4E	4e	4cc
!!section:  I
!!measure:  C
!!diceroll: 6
=163	=163	=163
8E	4g	4cc
8G	.	.
8BB	4g	8.dd
8G	.	.
.	.	32cc
.	.	32dd
8C	4g	4ee
8G	.	.
!!section:  I
!!measure:  D
!!diceroll: 10
=156	=156	=156
2G	4e	4cc
.	4d	4b
4C	4e	4cc
!!section:  I
!!measure:  E
!!diceroll: 8
=99	=99	=99
4C	12c	4ee
.	12e	.
.	12a	.
4C	12c	8dd
.	12e	.
.	.	8cc
.	12a	.
4C	12c	8b
.	12e	.
.	.	8a
.	12a	.
!!section:  I
!!measure:  F
!!diceroll: 7
=68	=68	=68
4r	4r	[4d
4C	4d	16d]
.	.	16e
.	.	16f#
.	.	16g
4BB	4d	16a
.	.	16b
.	.	16cc
.	.	16dd
!!section:  I
!!measure:  G
!!diceroll: 8
=21	=21	=21
4D	8a	8a
.	8cc	8ee
4E	8b	8dd
.	8a	8cc
4DD	8g	8b
.	8f#	8a
!!section:  I
!!measure:  H
!!diceroll: 7
=91	=91	=91
8GG	2.g	2.g
8G	.	.
8D	.	.
8BB	.	.
4GG	.	.
*>B	*>B	*>B
!!section:  II
!!measure:  A
!!diceroll: 10
=65	=65	=65
4r	4r	16a
.	.	16b
.	.	16cc#
.	.	16b
4A	4c#	8a
.	.	4aa
4A	4e	.
.	.	8cc#
!!section:  II
!!measure:  B
!!diceroll: 7
=71	=71	=71
8F	4dd	8aa
8F	.	8a
8E	4cc#	8gg
8E	.	8a
8D	4dd	4ff
8D	.	.
!!section:  II
!!measure:  C
!!diceroll: 3
=126	=126	=126
8GG	2dd	2ff
8G	.	.
8BB	.	.
8G	.	.
8GG	8cc	8ee
8G	8b	8dd
!!section:  II
!!measure:  D
!!diceroll: 3
=56	=56	=56
4r	4cc	4cc
4G	4B	16dd
.	.	16cc
.	.	16dd
.	.	16ff
4C	4c	4ee
!!section:  II
!!measure:  E
!!diceroll: 8
=43	=43	=43
2C	4f	16a
.	.	16cc
.	.	16b
.	.	16a
.	4d	8b
.	.	8dd
4C	4e	4cc
!!section:  II
!!measure:  F
!!diceroll: 6
=136	=136	=136
4r	4r	[4g
4F	4d	16g]
.	.	16a
.	.	16b
.	.	16cc
4E	4c	16dd
.	.	16ee
.	.	16ff#
.	.	16gg
!!section:  II
!!measure:  G
!!diceroll: 5
=52	=52	=52
4F	8.c	16aa
.	.	16gg
.	.	16aa
.	16d	16ff
4G	4c	4ee
4G	4B	4dd
!!section:  II
!!measure:  H
!!diceroll: 8
=172	=172	=172
4C	2.cc	2.cc
8.GG	.	.
16EE	.	.
4CC	.	.
*-	*-	*-
!!!END: 2004/11/01/
